Sources/FrostedUI/Resources/Icons.xcassets/pin12.imageset/pin-12.svg

<svg width="12" height="12" viewBox="0 0 12 12" fill="none" xmlns="http://www.w3.org/2000/svg" data-fui-icon="true">
  <path
    d="M7.24988 0C8.21638 0 8.99988 0.783502 8.99988 1.75V4.16797C8.99994 4.24939 9.02244 4.32959 9.06433 4.39941L10.2343 6.34961C10.9341 7.51603 10.0935 9 8.73328 9H6.74988V11.25C6.74988 11.6642 6.41408 12 5.99988 12C5.5857 12 5.24988 11.6642 5.24988 11.25V9H3.26648C1.90628 8.99994 1.0657 7.516 1.7655 6.34961L2.93542 4.39941C2.97733 4.32958 2.99981 4.24941 2.99988 4.16797V1.75C2.99988 0.783529 3.78342 4.39645e-05 4.74988 0H7.24988ZM4.74988 1.5C4.61184 1.50004 4.49988 1.61196 4.49988 1.75V4.16797C4.49981 4.52127 4.40333 4.86794 4.22156 5.1709L3.05164 7.12109C2.95171 7.2877 3.07222 7.49994 3.26648 7.5H8.73328C8.9276 7.5 9.0481 7.28773 8.94812 7.12109L7.7782 5.1709C7.59644 4.86795 7.49994 4.52126 7.49988 4.16797V1.75C7.49988 1.61193 7.38795 1.5 7.24988 1.5H4.74988Z"
    fill="currentColor"
  />
</svg>

<svg xmlns="http://www.w3.org/2000/svg" width="12" height="12" fill="none" data-fui-icon="true" viewBox="0 0 12 12"><path fill="currentColor" d="M7.25 0C8.216 0 9 .784 9 1.75v2.418c0 .081.022.162.064.231l1.17 1.95c.7 1.167-.14 2.651-1.5 2.651H6.75v2.25a.75.75 0 0 1-1.5 0V9H3.266c-1.36 0-2.2-1.484-1.5-2.65l1.17-1.95A.45.45 0 0 0 3 4.167V1.75C3 .784 3.783 0 4.75 0zm-2.5 1.5a.25.25 0 0 0-.25.25v2.418c0 .353-.097.7-.278 1.003l-1.17 1.95a.25.25 0 0 0 .214.379h5.467a.25.25 0 0 0 .215-.379l-1.17-1.95A1.95 1.95 0 0 1 7.5 4.168V1.75a.25.25 0 0 0-.25-.25z"/></svg>
